resources/svg/minor-thumbs-up.svg

<svg xmlns="http://www.w3.org/2000/svg" viewBox="0 0 20 20" fill="currentColor"><path d="M14.198 16h-3.896l-2.302-1.535v-6.188l2.563-4.273a.502.502 0 0 1 .437.496v3.5a1 1 0 0 0 1 1h3.753l-1.555 7zm3.582-8.625a1 1 0 0 0-.78-.375h-4v-2.5c0-1.378-1.12-2.5-2.5-2.5h-.5a1 1 0 0 0-.858.485l-2.709 4.515h-3.433a1 1 0 0 0-1 1v7a1 1 0 0 0 1 1h3.697l2.748 1.832c.164.109.357.168.555.168h5a1 1 0 0 0 .976-.783l2-9a1 1 0 0 0-.196-.842z"/></svg>

<svg xmlns="http://www.w3.org/2000/svg" viewBox="0 0 20 20" fill="currentColor"><path d="M14.198 16h-3.896L8 14.465V8.277l2.563-4.273A.502.502 0 0111 4.5V8a1 1 0 001 1h3.753l-1.555 7zm3.582-8.625A1 1 0 0017 7h-4V4.5C13 3.122 11.88 2 10.5 2H10a1 1 0 00-.858.485L6.433 7H3a1 1 0 00-1 1v7a1 1 0 001 1h3.697l2.748 1.832c.164.109.357.168.555.168h5a1 1 0 00.976-.783l2-9a1 1 0 00-.196-.842z" fill="#5C5F62"/></svg>
